!!!!SEGMENT: Ren2009-Ave_sanctissima_Maria.krn
!!!id: Ren2009
!!!AGN: Motet
!!!voices: 4
!!!COM: Renaldo
!!!OTL: Ave sanctissima Maria
**kern	**kern	**kern	**kern
*part4	*part3	*part2	*part1
*staff4	*staff3	*staff2	*staff1
*I"Bassus	*I"Tenor	*I"Altus	*I"Superius
*I'B	*I'T	*I'A	*I'S
*clefF4	*clefGv2	*clefGv2	*clefG2
*k[b-]	*k[b-]	*k[b-]	*k[b-]
*F:	*F:	*F:	*F:
*M2/1	*M2/1	*M2/1	*M2/1
*met(C|)	*met(C|)	*met(C|)	*met(C|)
!!section: Prima Pars: Ave sanctissima Maria
!!!OMD: Prima Pars: Ave sanctissima Maria
=1	=1	=1	=1
0G	0G	0d	0g
=2	=2	=2	=2
0D	0A	0d	0f
=3	=3	=3	=3
0D	0A	0d	0f
=4	=4	=4	=4
1G	1B-y	1.d	1g
1G	1B-y	.	1g
.	.	2e	.
=5	=5	=5	=5
1F	1c	0f	0a
1D	[1d	.	.
=6	=6	=6	=6
0E	2d]	0g	0r
.	4c#i	.	.
.	4BnXi	.	.
.	1c#i	.	.
=7	=7	=7	=7
0D	0d	0f	0a
=8	=8	=8	=8
0G	1B-y	0d	0b-y
.	1B-y	.	.
=9	=9	=9	=9
0C	0c	0e	0g
=10	=10	=10	=10
1D	1A	1d	1f
[1F	2.A	1c	[1a
.	4B-y	.	.
=11	=11	=11	=11
2F]	2c	2A	2a]
2G	2B-y	1B-y	2g
1E	1G	.	[1g
.	.	2c	.
=12	=12	=12	=12
0D	0A	0d	1g]
.	.	.	1f#i
=13	=13	=13	=13
1.G	1G	1d	1g
.	2r	1r	1r
2F	[2d	.	.
=14	=14	=14	=14
2G	2d]	0r	0r
2A	2c	.	.
2B-y	2d	.	.
4A	2e	.	.
4G	.	.	.
=15	=15	=15	=15
1F	2f	0r	0r
.	4e	.	.
.	4d	.	.
1A	2c	.	.
.	[2f	.	.
=16	=16	=16	=16
2G	4f]	0r	0r
.	4e	.	.
2F	1d	.	.
1E	.	.	.
.	2c#i	.	.
=17	=17	=17	=17
1D	1d	1A	0f
1r	1r	2A	.
.	.	[2B-y	.
=18	=18	=18	=18
0r	0r	2B-]	2g
.	.	2c	1a
.	.	1d	.
.	.	.	2b-y
=19	=19	=19	=19
0r	0r	2e	2g
.	.	2c	1a
.	.	1d	.
.	.	.	2b-y
=20	=20	=20	=20
0r	0r	2e	1cc
.	.	1f	.
.	.	.	2a
.	.	[2d	[2b-y
=21	=21	=21	=21
1r	1r	2d]	2b-]
.	.	1g	4a
.	.	.	4g
1D	1d	.	1a
.	.	2f#i	.
=22	=22	=22	=22
0G	0B-y	2g	1g
.	.	1d	.
.	.	.	[1g
.	.	2d	.
=23	=23	=23	=23
1G	1B-y	1d	1g]
1C	1c	1e	1g
=24	=24	=24	=24
1D	1A	1.d	1f
1G	1B-y	.	1g
.	.	2e	.
=25	=25	=25	=25
1F	1c	2f	1a
.	.	2F	.
1D	[1d	[1A	1f
=26	=26	=26	=26
0E	2d]	2A]	0g
.	4c#i	4G	.
.	4BnXi	4F	.
.	1c#i	1G	.
=27	=27	=27	=27
1D	1d	1A	1.f
1D	1A	1d	.
.	.	.	2g
=28	=28	=28	=28
1F	1A	2c	2a
.	.	1f	2f
1G	1B-y	.	[1b-y
.	.	2e	.
=29	=29	=29	=29
1F	1c	0f	2b-]
.	.	.	4a
.	.	.	4g
1F	1c	.	1a
=30	=30	=30	=30
0B-y	0B-y	0f	0b-y
=31	=31	=31	=31
1.B-y	1.d	1.f	1.b-y
2B-y	2d	2f	2b-y
=32	=32	=32	=32
1B-y	1d	0f	1b-y
1F	1c	.	1a
=33	=33	=33	=33
2G	2B-y	2d	2g
2.F	2.c	2.f	2.a
4G	4B-y	4e	4g
2E	4A	4d	[2g
.	4G	4c	.
=34	=34	=34	=34
1D	1A	1d	2g]
.	.	.	2f#i
[1G	[1G	[1B-y	[1g
=35	=35	=35	=35
1G]	1G]	0B-]	1g]
1G	1d	.	2r
.	.	.	2b-y
=36	=36	=36	=36
0r	2c	0r	2a
.	2B-y	.	1g
.	1A	.	.
.	.	.	2f#i
=37	=37	=37	=37
1r	1G	1d	1g
1d	1r	1f	1r
=38	=38	=38	=38
2c	0r	2e	0r
2B-y	.	1g	.
1A	.	.	.
.	.	2f#i	.
=39	=39	=39	=39
2G	1d	2g	2r
2D	.	2f	2b-y
2F	2c	2f	2a
2G	2B-y	2e	[2g
=40	=40	=40	=40
1D	1A	1d	2g]
.	.	.	2f#i
[1G	[1G	[1B-y	[1g
=41	=41	=41	=41
1G]	1G]	2B-]	1g]
.	.	2c	.
[1G	[1B-y	[1d	[1g
=42	=42	=42	=42
1G]	1B-]	1d]	1g]
[1D	[1A	[1d	[1f
=43	=43	=43	=43
1D;]	1A;]	1d;]	1f;]
1G	1B-y	1d	1g
=44	=44	=44	=44
1D	1A	1d	1f
1G	1B-y	1d	1g
=45	=45	=45	=45
1C	1c	1e	1g
[1D	[1A	[1d	[1f
=46	=46	=46	=46
1D;]	1A;]	1d;]	1f;]
[1D	[1A	[1d	[1f
=47	=47	=47	=47
1D]	1A]	1d]	1f]
1G	1B-y	1d	1g
=48	=48	=48	=48
1G	1B-y	2d	1g
.	.	2e	.
2F	2c	1f	[1a
2D	[2d	.	.
=49	=49	=49	=49
1A	2d]	1e	1a]
.	2c#i	.	.
1D	1d	1d	1f
=50	=50	=50	=50
2r	2r	2r	2r
2D	2A	2d	2f
1G	1B-y	[1d	1g
=51	=51	=51	=51
1G	1B-y	2d]	1b-y
.	.	2e	.
1F	1c	1f	1a
=52	=52	=52	=52
2G	2B-y	2d	2g
2F	2c	2.f	2.a
1D	2.d	.	.
.	.	4e	4g
.	.	2f	4f
.	4c	.	4e
=53	=53	=53	=53
2G	2B-y	2g	2d
2F	2A	2c	2f
[1G	2G	1g	2e
.	[2B-y	.	[2d
=54	=54	=54	=54
1G]	2B-]	2r	2d]
.	4A	2d	1g
.	4G	.	.
1D	1A	[1d	.
.	.	.	2f#i
=55	=55	=55	=55
1G	1G	1d]	1g
2r	2r	2r	2r
2D	2A	2d	2f
=56	=56	=56	=56
2D	2A	2d	2f
2D	2A	2d	2f
2G	2B-y	2d	2g
2G	2B-y	2d	2g
=57	=57	=57	=57
1D	1A	1d	1f
1D	1A	1d	1f
=58	=58	=58	=58
2r	2r	2r	2r
2F	2A	2c	2a
2F	2c	2f	2a
2F	2c	2f	2a
=59	=59	=59	=59
2B-y	2d	2f	2b-y
2B-y	2d	2f	2b-y
1F	1c	1f	1a
=60	=60	=60	=60
1F	1c	1f	1a
1r	2r	1r	2r
.	2d	.	2b-y
=61	=61	=61	=61
0r	2d	0r	2b-y
.	2d	.	2b-y
.	2c	.	2a
.	2d	.	2b-y
=62	=62	=62	=62
0r	1e	0r	1cc
.	2d	.	2b-y
.	[2c	.	[2a
=63	=63	=63	=63
0r	2c]	0r	2a]
.	2B-y	.	1g
.	1A	.	.
.	.	.	2f#i
=64	=64	=64	=64
2r	2G	2r	2g
2G	2d	2g	2b-y
2G	2d	2g	2b-y
2G	2B-y	2d	2b-y
=65	=65	=65	=65
2F	2c	2f	2a
2G	2B-y	2d	2b-y
4C	1e-i	2c	1cc
4D	.	.	.
4E	.	[2g	.
4F	.	.	.
=66	=66	=66	=66
2G	2d	2g]	2b-y
2A	1c	2e	1a
2F	.	2f	.
2G	2B-y	2d	[2g
=67	=67	=67	=67
1D	1A	1d	2g]
.	.	.	2f#i
1G	1G	1d	1g
=68	=68	=68	=68
2r	2r	2r	2r
1G	1d	1g	1b-y
2G	2d	2g	2b-y
=69	=69	=69	=69
1G	1B-y	1d	1b-y
2F	2c	2f	2a
2F	2c	2f	2a
=70	=70	=70	=70
2B-y	2d	2d	2f
2G	2B-y	2e	1b-y
1F	1c	1f	.
.	.	.	2a
=71	=71	=71	=71
0B-y	0B-y	0f	0b-y
=72	=72	=72	=72
1F	1c	1f	1a
2F	2c	2f	2a
2F	2c	2f	2a
=73	=73	=73	=73
2G	2B-y	4d	2g
.	.	4e	.
2F	2A	2f	2a
2G	2B-y	2d	2a
2C	2c	2e	[2g
=74	=74	=74	=74
0D	0A	0d	1g]
.	.	.	1f#i
=75	=75	=75	=75
*M3/1	*M3/1	*M3/1	*M3/1
*met(3)	*met(3)	*met(3)	*met(3)
0G	0G	0d	0g
1r	1r	1r	1r
=76	=76	=76	=76
1G	1d	1g	1b-y
1G	1d	1g	1b-y
1G	1B-y	1d	1b-y
=77	=77	=77	=77
1F	1c	1f	1a
1F	1c	1f	1a
1B-y	1d	1d	1f
=78	=78	=78	=78
1G	1B-y	1e	0b-y
0F	0c	0f	.
.	.	.	1a
=79	=79	=79	=79
0B-y	0B-y	0d	0b-y
1r	1r	1r	1r
=80	=80	=80	=80
1F	1c	1f	1a
1F	1c	1f	1a
1F	1c	1f	1a
=81	=81	=81	=81
1G	1B-y	1d	1g
1F	1A	1f	0a
1G	1B-y	1d	.
=82	=82	=82	=82
1C	1c	1e	1g
0D	0A	0d	1g
.	.	.	1f#i
=83	=83	=83	=83
0.G	0.G	0.d	0.g
=84	=84	=84	=84
[0.D	[0.A	[0.d	[0.f
=85	=85	=85	=85
0.D;]	0.A;]	0.d;]	0.f;]
=86	=86	=86	=86
00Gl	00Gl	00dl	00gl
==	==	==	==
*-	*-	*-	*-
!!!system-decoration: [*]
!!!RDF**kern: i = editorial accidental
!!!RDF**kern: l = terminal long
!!!ENC: Benjamin Ory
!!!END: 2024/12/25
!!!EED: Benjamin Ory
!!!EEV: 2025/02/17
!!!YEC: Copyright 2025 Benjamin Ory, All Rights Reserved
!!!ONB: Translated from MusicXML on 2025/02/17